TileServer und Tiles/svg/9/45_8.svg

<?xml version='1.0' encoding='UTF-8' standalone='no'?>
<svg xmlns="http://www.w3.org/2000/svg" width="497pt" viewBox="0 0 497 279" xmlns:xlink="http://www.w3.org/1999/xlink" height="279pt">
 <defs style="stroke:none;" overflow="visible">
  <path id="glyph0-6" d="M 9.484375 -6.265625 L 9.484375 -6.984375 L 5.359375 -6.984375 L 5.359375 -8.40625 L 4.578125 -8.40625 L 4.578125 -6.984375 L 0.546875 -6.984375 L 0.546875 -6.265625 L 4.59375 -6.265625 L 4.59375 -4.90625 L 1.5625 -4.90625 L 1.5625 -0.46875 L 2.296875 -0.46875 L 2.296875 -4.203125 L 4.59375 -4.203125 L 4.59375 0.796875 L 5.34375 0.796875 L 5.34375 -4.203125 L 7.796875 -4.203125 L 7.796875 -1.40625 C 7.796875 -1.28125 7.734375 -1.234375 7.5625 -1.21875 C 7.390625 -1.21875 6.796875 -1.21875 6.125 -1.234375 C 6.21875 -1.03125 6.34375 -0.734375 6.375 -0.515625 C 7.21875 -0.515625 7.78125 -0.515625 8.125 -0.640625 C 8.453125 -0.765625 8.5625 -0.984375 8.5625 -1.40625 L 8.5625 -4.90625 L 5.34375 -4.90625 L 5.34375 -6.265625 Z M 9.484375 -6.265625 "/>
  <path id="glyph0-5" d="M 2.71875 -4.796875 L 3.84375 -4.796875 L 3.84375 -5.453125 L 1.0625 -5.453125 L 1.0625 -4.796875 L 2.046875 -4.796875 L 2.046875 -3.4375 L 0.59375 -3.4375 L 0.59375 -2.765625 L 2.046875 -2.765625 L 2.046875 -0.8125 C 2.046875 -0.34375 1.703125 0 1.515625 0.140625 C 1.640625 0.265625 1.828125 0.5 1.90625 0.65625 C 2.0625 0.46875 2.328125 0.3125 4.015625 -0.734375 C 3.953125 -0.859375 3.875 -1.15625 3.84375 -1.34375 L 2.71875 -0.703125 L 2.71875 -2.765625 L 4.046875 -2.765625 L 4.046875 -3.4375 L 2.71875 -3.4375 Z M 1.625 -8.34375 C 1.359375 -7.4375 0.90625 -6.53125 0.34375 -5.9375 C 0.484375 -5.765625 0.6875 -5.40625 0.75 -5.25 C 1.0625 -5.59375 1.34375 -6.03125 1.609375 -6.515625 L 4.125 -6.515625 L 4.125 -7.21875 L 1.953125 -7.21875 C 2.078125 -7.515625 2.203125 -7.84375 2.296875 -8.15625 Z M 5.328125 -5.453125 L 8.3125 -5.453125 L 8.3125 -4.578125 L 5.328125 -4.578125 Z M 5.328125 -6.84375 L 8.3125 -6.84375 L 8.3125 -6 L 5.328125 -6 Z M 9.265625 -3.15625 L 7.171875 -3.15625 L 7.171875 -4 L 9.046875 -4 L 9.046875 -7.421875 L 6.796875 -7.421875 C 6.875 -7.6875 6.984375 -8 7.09375 -8.296875 L 6.25 -8.375 C 6.203125 -8.109375 6.125 -7.734375 6.046875 -7.421875 L 4.640625 -7.421875 L 4.640625 -4 L 6.453125 -4 L 6.453125 -3.15625 L 4.453125 -3.15625 L 4.453125 0.203125 L 5.140625 0.203125 L 5.140625 -2.484375 L 6.453125 -2.484375 L 6.453125 0.765625 L 7.171875 0.765625 L 7.171875 -2.484375 L 8.546875 -2.484375 L 8.546875 -0.65625 C 8.546875 -0.546875 8.515625 -0.515625 8.40625 -0.515625 C 8.3125 -0.515625 7.984375 -0.515625 7.59375 -0.515625 C 7.6875 -0.328125 7.765625 -0.078125 7.796875 0.125 C 8.34375 0.125 8.71875 0.125 8.953125 0.015625 C 9.203125 -0.109375 9.265625 -0.296875 9.265625 -0.640625 Z M 9.265625 -3.15625 "/>
  <path id="glyph0-4" d="M 4.609375 -2.25 L 4.609375 -1.453125 L 2.296875 -1.453125 L 2.296875 -2.25 Z M 7.75 -1.453125 L 5.328125 -1.453125 L 5.328125 -2.25 L 7.75 -2.25 Z M 5.328125 -0.125 L 5.328125 -0.9375 L 7.75 -0.9375 L 7.75 -0.125 Z M 2.296875 -0.9375 L 4.609375 -0.9375 L 4.609375 -0.125 L 2.296875 -0.125 Z M 1.578125 0.765625 L 2.296875 0.765625 L 2.296875 0.4375 L 7.75 0.4375 L 7.75 0.71875 L 8.484375 0.71875 L 8.484375 -2.8125 L 1.578125 -2.8125 Z M 7.859375 -6.40625 L 2.171875 -6.40625 L 2.171875 -5.875 L 7.859375 -5.875 Z M 2.921875 -4.75 L 7.125 -4.75 L 7.125 -3.90625 L 2.921875 -3.90625 Z M 7.84375 -3.375 L 7.84375 -5.28125 L 2.234375 -5.28125 L 2.234375 -3.375 Z M 5.34375 -7.703125 L 5.34375 -8.375 L 4.59375 -8.375 L 4.59375 -7.703125 L 0.84375 -7.703125 L 0.84375 -5.828125 L 1.546875 -5.828125 L 1.546875 -7.0625 L 8.453125 -7.0625 L 8.453125 -5.828125 L 9.1875 -5.828125 L 9.1875 -7.703125 Z M 5.34375 -7.703125 "/>
  <path id="glyph0-3" d="M 4.015625 -6.546875 L 4.015625 -7.234375 L 2.125 -7.234375 C 2.265625 -7.515625 2.375 -7.84375 2.484375 -8.140625 L 1.8125 -8.34375 C 1.515625 -7.40625 0.984375 -6.515625 0.375 -5.9375 C 0.515625 -5.765625 0.703125 -5.40625 0.765625 -5.234375 C 1.125 -5.59375 1.453125 -6.046875 1.765625 -6.546875 Z M 2.703125 -0.59375 L 2.703125 -2.765625 L 4.046875 -2.765625 L 4.046875 -3.4375 L 2.703125 -3.4375 L 2.703125 -4.796875 L 3.84375 -4.796875 L 3.84375 -5.453125 L 1.140625 -5.453125 L 1.140625 -4.796875 L 2.015625 -4.796875 L 2.015625 -3.4375 L 0.625 -3.4375 L 0.625 -2.765625 L 2.015625 -2.765625 L 2.015625 -0.703125 C 2.015625 -0.234375 1.703125 0.046875 1.515625 0.171875 C 1.640625 0.296875 1.828125 0.546875 1.90625 0.703125 C 2.046875 0.53125 2.328125 0.375 4.046875 -0.578125 C 3.984375 -0.734375 3.9375 -1.015625 3.90625 -1.203125 Z M 5.890625 -1.046875 C 5.46875 -0.625 4.6875 -0.0625 4.046875 0.265625 C 4.1875 0.40625 4.40625 0.625 4.5 0.78125 C 5.15625 0.421875 5.953125 -0.125 6.515625 -0.640625 Z M 7.171875 -0.59375 C 7.796875 -0.1875 8.59375 0.40625 8.96875 0.765625 L 9.484375 0.28125 C 9.078125 -0.09375 8.265625 -0.65625 7.65625 -1.03125 Z M 5.421875 -2.421875 L 8.234375 -2.421875 L 8.234375 -1.75 L 5.421875 -1.75 Z M 8.234375 -5.640625 L 8.234375 -5 L 5.421875 -5 L 5.421875 -5.640625 Z M 8.234375 -3.953125 L 5.421875 -3.953125 L 5.421875 -4.546875 L 8.234375 -4.546875 Z M 5.421875 -3.5 L 8.234375 -3.5 L 8.234375 -2.875 L 5.421875 -2.875 Z M 8.9375 -1.75 L 8.9375 -6.15625 L 6.796875 -6.15625 C 6.859375 -6.375 6.921875 -6.59375 6.984375 -6.828125 L 9.34375 -6.828125 L 9.34375 -7.4375 L 7.125 -7.4375 C 7.1875 -7.734375 7.25 -8.03125 7.3125 -8.296875 L 6.53125 -8.34375 C 6.484375 -8.078125 6.4375 -7.765625 6.375 -7.4375 L 4.3125 -7.4375 L 4.3125 -6.828125 L 6.265625 -6.828125 C 6.203125 -6.59375 6.15625 -6.375 6.109375 -6.15625 L 4.734375 -6.15625 L 4.734375 -1.75 L 4.015625 -1.75 L 4.015625 -1.09375 L 9.546875 -1.09375 L 9.546875 -1.75 Z M 8.9375 -1.75 "/>
  <path id="glyph0-2" d="M 2.703125 -4.515625 C 2.28125 -4.8125 1.453125 -5.25 0.859375 -5.515625 L 0.453125 -4.96875 C 1.0625 -4.671875 1.875 -4.203125 2.28125 -3.90625 Z M 1.40625 0.625 C 1.984375 -0.296875 2.6875 -1.515625 3.21875 -2.5625 L 2.6875 -3.0625 C 2.09375 -1.9375 1.3125 -0.625 0.78125 0.125 Z M 0.984375 -7.703125 C 1.59375 -7.359375 2.375 -6.84375 2.765625 -6.515625 L 3.21875 -7.09375 C 2.8125 -7.421875 2.015625 -7.90625 1.421875 -8.21875 Z M 6.6875 -0.625 L 6.6875 -6.6875 L 9 -6.6875 L 9 -7.421875 L 3.734375 -7.421875 L 3.734375 -6.6875 L 5.90625 -6.6875 L 5.90625 -0.625 L 3.265625 -0.625 L 3.265625 0.125 L 9.546875 0.125 L 9.546875 -0.625 Z M 6.6875 -0.625 "/>
  <path id="glyph0-1" d="M 6.3125 -3.78125 L 6.3125 -1.890625 L 3.6875 -1.890625 L 3.6875 -3.78125 Z M 7.015625 -1.25 L 7.015625 -4.40625 L 3 -4.40625 L 3 -0.53125 L 3.6875 -0.53125 L 3.6875 -1.25 Z M 7.546875 -6.09375 L 2.5 -6.09375 L 2.5 -5.453125 L 7.546875 -5.453125 Z M 9.109375 -7.84375 L 0.90625 -7.84375 L 0.90625 0.796875 L 1.625 0.796875 L 1.625 -7.140625 L 8.375 -7.140625 L 8.375 -0.171875 C 8.375 -0.015625 8.3125 0.046875 8.140625 0.0625 C 7.96875 0.0625 7.390625 0.0625 6.765625 0.046875 C 6.875 0.25 7 0.5625 7.03125 0.78125 C 7.890625 0.78125 8.390625 0.765625 8.703125 0.640625 C 9 0.515625 9.109375 0.296875 9.109375 -0.171875 Z M 9.109375 -7.84375 "/>
  <path id="glyph0-0" d="M 1 1.203125 L 9 1.203125 L 9 -8.796875 L 1 -8.796875 Z M 5 -4.203125 L 1.8125 -8.296875 L 8.1875 -8.296875 Z M 5.3125 -3.796875 L 8.5 -7.890625 L 8.5 0.296875 Z M 1.8125 0.703125 L 5 -3.390625 L 8.1875 0.703125 Z M 1.5 -7.890625 L 4.6875 -3.796875 L 1.5 0.296875 Z M 1.5 -7.890625 "/>
 </defs>
 <image width="497" xlink:href="svg/9/45_8.jpg" height="279"/>
 <g>
  <path d="M 208.871094 101.324219 L 208.871094 103.214844 L 206.246094 103.214844 L 206.246094 101.324219 Z M 209.574219 103.855469 L 209.574219 100.699219 L 205.558594 100.699219 L 205.558594 104.574219 L 206.246094 104.574219 L 206.246094 103.855469 Z M 210.105469 99.011719 L 205.058594 99.011719 L 205.058594 99.652344 L 210.105469 99.652344 Z M 211.667969 97.261719 L 203.464844 97.261719 L 203.464844 105.902344 L 204.183594 105.902344 L 204.183594 97.964844 L 210.933594 97.964844 L 210.933594 104.933594 C 210.933594 105.089844 210.871094 105.152344 210.699219 105.167969 C 210.527344 105.167969 209.949219 105.167969 209.324219 105.152344 C 209.433594 105.355469 209.558594 105.667969 209.589844 105.886719 C 210.449219 105.886719 210.949219 105.871094 211.261719 105.746094 C 211.558594 105.621094 211.667969 105.402344 211.667969 104.933594 Z M 211.667969 97.261719 " transform=" rotate(  340 217.557 102.104) " style="fill:none;stroke-width:3;stroke-linecap:butt;stroke-linejoin:round;stroke:rgb(100%,100%,100%);stroke-opacity:0.6;stroke-miterlimit:10;"/>
  <path d="M 215.261719 100.589844 C 214.839844 100.292969 214.011719 99.855469 213.417969 99.589844 L 213.011719 100.136719 C 213.621094 100.433594 214.433594 100.902344 214.839844 101.199219 Z M 213.964844 105.730469 C 214.542969 104.808594 215.246094 103.589844 215.777344 102.542969 L 215.246094 102.042969 C 214.652344 103.167969 213.871094 104.480469 213.339844 105.230469 Z M 213.542969 97.402344 C 214.152344 97.746094 214.933594 98.261719 215.324219 98.589844 L 215.777344 98.011719 C 215.371094 97.683594 214.574219 97.199219 213.980469 96.886719 Z M 219.246094 104.480469 L 219.246094 98.417969 L 221.558594 98.417969 L 221.558594 97.683594 L 216.292969 97.683594 L 216.292969 98.417969 L 218.464844 98.417969 L 218.464844 104.480469 L 215.824219 104.480469 L 215.824219 105.230469 L 222.105469 105.230469 L 222.105469 104.480469 Z M 219.246094 104.480469 " transform=" rotate(  340 217.557 102.104) " style="fill:none;stroke-width:3;stroke-linecap:butt;stroke-linejoin:round;stroke:rgb(100%,100%,100%);stroke-opacity:0.6;stroke-miterlimit:10;"/>
  <path d="M 226.574219 98.558594 L 226.574219 97.871094 L 224.683594 97.871094 C 224.824219 97.589844 224.933594 97.261719 225.042969 96.964844 L 224.371094 96.761719 C 224.074219 97.699219 223.542969 98.589844 222.933594 99.167969 C 223.074219 99.339844 223.261719 99.699219 223.324219 99.871094 C 223.683594 99.511719 224.011719 99.058594 224.324219 98.558594 Z M 225.261719 104.511719 L 225.261719 102.339844 L 226.605469 102.339844 L 226.605469 101.667969 L 225.261719 101.667969 L 225.261719 100.308594 L 226.402344 100.308594 L 226.402344 99.652344 L 223.699219 99.652344 L 223.699219 100.308594 L 224.574219 100.308594 L 224.574219 101.667969 L 223.183594 101.667969 L 223.183594 102.339844 L 224.574219 102.339844 L 224.574219 104.402344 C 224.574219 104.871094 224.261719 105.152344 224.074219 105.277344 C 224.199219 105.402344 224.386719 105.652344 224.464844 105.808594 C 224.605469 105.636719 224.886719 105.480469 226.605469 104.527344 C 226.542969 104.371094 226.496094 104.089844 226.464844 103.902344 Z M 228.449219 104.058594 C 228.027344 104.480469 227.246094 105.042969 226.605469 105.371094 C 226.746094 105.511719 226.964844 105.730469 227.058594 105.886719 C 227.714844 105.527344 228.511719 104.980469 229.074219 104.464844 Z M 229.730469 104.511719 C 230.355469 104.917969 231.152344 105.511719 231.527344 105.871094 L 232.042969 105.386719 C 231.636719 105.011719 230.824219 104.449219 230.214844 104.074219 Z M 227.980469 102.683594 L 230.792969 102.683594 L 230.792969 103.355469 L 227.980469 103.355469 Z M 230.792969 99.464844 L 230.792969 100.105469 L 227.980469 100.105469 L 227.980469 99.464844 Z M 230.792969 101.152344 L 227.980469 101.152344 L 227.980469 100.558594 L 230.792969 100.558594 Z M 227.980469 101.605469 L 230.792969 101.605469 L 230.792969 102.230469 L 227.980469 102.230469 Z M 231.496094 103.355469 L 231.496094 98.949219 L 229.355469 98.949219 C 229.417969 98.730469 229.480469 98.511719 229.542969 98.277344 L 231.902344 98.277344 L 231.902344 97.667969 L 229.683594 97.667969 C 229.746094 97.371094 229.808594 97.074219 229.871094 96.808594 L 229.089844 96.761719 C 229.042969 97.027344 228.996094 97.339844 228.933594 97.667969 L 226.871094 97.667969 L 226.871094 98.277344 L 228.824219 98.277344 C 228.761719 98.511719 228.714844 98.730469 228.667969 98.949219 L 227.292969 98.949219 L 227.292969 103.355469 L 226.574219 103.355469 L 226.574219 104.011719 L 232.105469 104.011719 L 232.105469 103.355469 Z M 231.496094 103.355469 " transform=" rotate(  340 217.557 102.104) " style="fill:none;stroke-width:3;stroke-linecap:butt;stroke-linejoin:round;stroke:rgb(100%,100%,100%);stroke-opacity:0.6;stroke-miterlimit:10;"/>
  <g transform=" rotate(  340 217.557 102.104) " style="fill:rgb(13.333333%,13.333333%,13.333333%);fill-opacity:1;">
   <use xlink:href="#glyph0-1" y="105.104074" x="202.556691"/>
   <use xlink:href="#glyph0-2" y="105.104074" x="212.556691"/>
   <use xlink:href="#glyph0-3" y="105.104074" x="222.556691"/>
  </g>
  <path d="M 112.585938 223.316406 L 112.585938 224.113281 L 110.273438 224.113281 L 110.273438 223.316406 Z M 115.726562 224.113281 L 113.304688 224.113281 L 113.304688 223.316406 L 115.726562 223.316406 Z M 113.304688 225.441406 L 113.304688 224.628906 L 115.726562 224.628906 L 115.726562 225.441406 Z M 110.273438 224.628906 L 112.585938 224.628906 L 112.585938 225.441406 L 110.273438 225.441406 Z M 109.554688 226.332031 L 110.273438 226.332031 L 110.273438 226.003906 L 115.726562 226.003906 L 115.726562 226.285156 L 116.460938 226.285156 L 116.460938 222.753906 L 109.554688 222.753906 Z M 115.835938 219.160156 L 110.148438 219.160156 L 110.148438 219.691406 L 115.835938 219.691406 Z M 110.898438 220.816406 L 115.101562 220.816406 L 115.101562 221.660156 L 110.898438 221.660156 Z M 115.820312 222.191406 L 115.820312 220.285156 L 110.210938 220.285156 L 110.210938 222.191406 Z M 113.320312 217.863281 L 113.320312 217.191406 L 112.570312 217.191406 L 112.570312 217.863281 L 108.820312 217.863281 L 108.820312 219.738281 L 109.523438 219.738281 L 109.523438 218.503906 L 116.429688 218.503906 L 116.429688 219.738281 L 117.164062 219.738281 L 117.164062 217.863281 Z M 113.320312 217.863281 " transform=" rotate(  340 122.976 222.567) " style="fill:none;stroke-width:3;stroke-linecap:butt;stroke-linejoin:round;stroke:rgb(100%,100%,100%);stroke-opacity:0.6;stroke-miterlimit:10;"/>
  <path d="M 120.695312 220.769531 L 121.820312 220.769531 L 121.820312 220.113281 L 119.039062 220.113281 L 119.039062 220.769531 L 120.023438 220.769531 L 120.023438 222.128906 L 118.570312 222.128906 L 118.570312 222.800781 L 120.023438 222.800781 L 120.023438 224.753906 C 120.023438 225.222656 119.679688 225.566406 119.492188 225.707031 C 119.617188 225.832031 119.804688 226.066406 119.882812 226.222656 C 120.039062 226.035156 120.304688 225.878906 121.992188 224.832031 C 121.929688 224.707031 121.851562 224.410156 121.820312 224.222656 L 120.695312 224.863281 L 120.695312 222.800781 L 122.023438 222.800781 L 122.023438 222.128906 L 120.695312 222.128906 Z M 119.601562 217.222656 C 119.335938 218.128906 118.882812 219.035156 118.320312 219.628906 C 118.460938 219.800781 118.664062 220.160156 118.726562 220.316406 C 119.039062 219.972656 119.320312 219.535156 119.585938 219.050781 L 122.101562 219.050781 L 122.101562 218.347656 L 119.929688 218.347656 C 120.054688 218.050781 120.179688 217.722656 120.273438 217.410156 Z M 123.304688 220.113281 L 126.289062 220.113281 L 126.289062 220.988281 L 123.304688 220.988281 Z M 123.304688 218.722656 L 126.289062 218.722656 L 126.289062 219.566406 L 123.304688 219.566406 Z M 127.242188 222.410156 L 125.148438 222.410156 L 125.148438 221.566406 L 127.023438 221.566406 L 127.023438 218.144531 L 124.773438 218.144531 C 124.851562 217.878906 124.960938 217.566406 125.070312 217.269531 L 124.226562 217.191406 C 124.179688 217.457031 124.101562 217.832031 124.023438 218.144531 L 122.617188 218.144531 L 122.617188 221.566406 L 124.429688 221.566406 L 124.429688 222.410156 L 122.429688 222.410156 L 122.429688 225.769531 L 123.117188 225.769531 L 123.117188 223.082031 L 124.429688 223.082031 L 124.429688 226.332031 L 125.148438 226.332031 L 125.148438 223.082031 L 126.523438 223.082031 L 126.523438 224.910156 C 126.523438 225.019531 126.492188 225.050781 126.382812 225.050781 C 126.289062 225.050781 125.960938 225.050781 125.570312 225.050781 C 125.664062 225.238281 125.742188 225.488281 125.773438 225.691406 C 126.320312 225.691406 126.695312 225.691406 126.929688 225.582031 C 127.179688 225.457031 127.242188 225.269531 127.242188 224.925781 Z M 127.242188 222.410156 " transform=" rotate(  340 122.976 222.567) " style="fill:none;stroke-width:3;stroke-linecap:butt;stroke-linejoin:round;stroke:rgb(100%,100%,100%);stroke-opacity:0.6;stroke-miterlimit:10;"/>
  <path d="M 137.460938 219.300781 L 137.460938 218.582031 L 133.335938 218.582031 L 133.335938 217.160156 L 132.554688 217.160156 L 132.554688 218.582031 L 128.523438 218.582031 L 128.523438 219.300781 L 132.570312 219.300781 L 132.570312 220.660156 L 129.539062 220.660156 L 129.539062 225.097656 L 130.273438 225.097656 L 130.273438 221.363281 L 132.570312 221.363281 L 132.570312 226.363281 L 133.320312 226.363281 L 133.320312 221.363281 L 135.773438 221.363281 L 135.773438 224.160156 C 135.773438 224.285156 135.710938 224.332031 135.539062 224.347656 C 135.367188 224.347656 134.773438 224.347656 134.101562 224.332031 C 134.195312 224.535156 134.320312 224.832031 134.351562 225.050781 C 135.195312 225.050781 135.757812 225.050781 136.101562 224.925781 C 136.429688 224.800781 136.539062 224.582031 136.539062 224.160156 L 136.539062 220.660156 L 133.320312 220.660156 L 133.320312 219.300781 Z M 137.460938 219.300781 " transform=" rotate(  340 122.976 222.567) " style="fill:none;stroke-width:3;stroke-linecap:butt;stroke-linejoin:round;stroke:rgb(100%,100%,100%);stroke-opacity:0.6;stroke-miterlimit:10;"/>
  <g transform=" rotate(  340 122.976 222.567) " style="fill:rgb(13.333333%,13.333333%,13.333333%);fill-opacity:1;">
   <use xlink:href="#glyph0-4" y="225.566706" x="107.976194"/>
   <use xlink:href="#glyph0-5" y="225.566706" x="117.976194"/>
   <use xlink:href="#glyph0-6" y="225.566706" x="127.976194"/>
  </g>
 </g>
</svg>

<svg xmlns="http://www.w3.org/2000/svg" xmlns:xlink="http://www.w3.org/1999/xlink" viewBox="0 0 497 279"> <defs overflow="visible" style="stroke:none">  <path id="f" d="M9.5-6.3V-7H5.4v-1.4h-.8V-7h-4v.7h3.9v1.4H1.6v4.4h.7v-3.7h2.3v5h.7v-5h2.5v2.8c0 .1 0 .2-.2.2H6l.4.7L8-.6c.5-.2.6-.4.6-.8V-5H5.3v-1.3Zm0 0"/>  <path id="e" d="M2.7-4.8h1.1v-.7H1.1v.7H2v1.4H.5v.6H2v2c0 .5-.3.8-.5 1l.5.4c.1-.1.3-.3 2-1.3l-.2-.6-1 .6v-2H4v-.8H2.7Zm-1-3.5C1.3-7.4.8-6.5.2-6c.3.2.5.6.6.8l.8-1.3h2.5v-.7H2l.3-1Zm3.5 2.8h3.1v1h-3Zm.1-1.3h3v.8h-3Zm4 3.6H7.2V-4H9v-3.4H6.8l.3-.9h-.8l-.3.8H4.6V-4h1.9v.8h-2V.2H5v-2.7h1.5V.8h.7v-3.3h1.3v2H7.4l.5.5H9c.2-.2.3-.4.3-.7Zm0 0"/>  <path id="d" d="M4.6-2.3v.9H2.3v-.9Zm3.2.9H5.3v-.9h2.5ZM5.3 0v-1h2.5v.9Zm-3-1h2.3v.9H2.3ZM1.6.8h.7V.4h5.5v.3h.6v-3.5H1.5Zm6.3-7.2H2.2v.4h5.7Zm-5 1.7h4.2v.7H3ZM8-3.5v-1.8H2.1v2ZM5.2-7.7v-.7h-.6v.7H.8v1.9h.7v-1.3h7v1.3h.7v-1.9Zm.1 0"/>  <path id="c" d="M4-6.5v-.7H2.1l.4-1h-.7C1.5-7.4 1-6.5.4-6l.4.8 1-1.3Zm-1.3 6v-2.4H4v-.5H2.7v-1.4h1.1v-.7H1.1v.7h1v1.4H.5v.6H2v2.1c0 .5-.3.7-.5.9l.5.5c0-.2.3-.3 2-1.3v-.6ZM5.9-1C5.5-.6 4.7 0 4 .3l.5.5 2-1.4Zm1.3.4L9 .8l.5-.5C9-.1 8.3-.7 7.7-1ZM5.4-2.4h2.8v.6H5.4Zm2.8-3.2v.6H5.4v-.6Zm0 1.6H5.4v-.5h2.8Zm-2.8.5h2.8v.6H5.4ZM9-1.7v-4.6H6.8l.2-.5h2.3v-.6H7.1l.2-.9h-.8l-.1.9h-2v.6h1.8l-.2.6H4.7v4.5H4v.6h5.5v-.6Zm0-.1"/>  <path id="b" d="M2.7-4.5a13.4 13.4 0 0 0-1.8-1L.5-5l1.8 1ZM1.4.6C2-.3 2.7-1.5 3.2-2.6L2.7-3A33 33 0 0 1 .7.1ZM1-7.7a14 14 0 0 1 1.8 1.2l.4-.6a13.3 13.3 0 0 0-1.8-1.1Zm5.7 7v-5.9H9v-.8H3.7v.7H6v6H3.3v.9h6.2v-.8Zm0 .1"/>  <path id="a" d="M6.3-3.8v2H3.7v-2.1ZM7-1.3v-3H3v3.8h.7v-.8ZM7.5-6h-5v.5h5Zm1.6-1.8H1V.8h.6v-8h6.8v7.1c0 .1 0 .1-.4.2H6.8l.2.6C8 .8 8.4.8 8.7.6c.3 0 .4-.3.4-.8Zm0 0"/>  <path d="M1 1.2h8v-10H1Zm4-5.4L1.8-8.3h6.4Zm.3.4 3.2-4v8ZM1.8.7l3.2-4L8.2.6Zm-.3-8.6 3.2 4.1L1.5.3Zm0 0"/> </defs> <image xlink:href="svg/9/45_8.jpg" width="497" height="279"/> <path d="M208.9 101.3v2h-2.7v-2.1Zm.7 2.7v-3.3h-4v3.9h.6v-.7Zm.4-5h-4.9v.7h4.9Zm1.7-1.7h-8.2v8.6h.7v-8h6.7v7.1c.1.1.1.2-.2.2h-1.4l.3.7c.8 0 1.3 0 1.7-.2.3 0 .4-.3.4-.7Zm3.6 3.3a13.4 13.4 0 0 0-1.9-1l-.4.4 1.8 1.2Zm-1.3 5.1 1.8-3.2-.6-.5a33 33 0 0 1-1.9 3.2Zm-.5-8.3a14 14 0 0 1 1.8 1.2l.5-.6a13.3 13.3 0 0 0-1.8-1Zm5.7 7v-5.9h2.4v-.8h-5.3v.7h2.2v6h-2.7v.9h6.3v-.8ZM226.6 98.6v-.7h-2l.4-1h-.6c-.4.8-.9 1.7-1.5 2.3.2.1.4.5.4.7l1-1.3Zm-1.3 6v-2.4h1.3v-.5h-1.3v-1.4h1.1v-.6h-2.7v.6h.9v1.4h-1.4v.6h1.4v2.1c0 .5-.3.8-.6.9l.5.5c.1-.2.4-.3 2.1-1.3l-.1-.5Zm3.1-.6c-.4.5-1.2 1-1.8 1.4l.5.5 1.9-1.4Zm1.3.5c.7.5 1.5 1 1.8 1.5l.5-.6c-.4-.4-1.2-1-1.8-1.4Zm-1.7-1.8h2.8v.7H228Zm2.8-3.2v.5H228v-.5Zm0 1.7H228v-.6h2.8Zm-2.8.4h2.8v.6H228Zm3.5 1.8v-4.5h-2.1l.1-.6h2.5v-.6h-2.3l.2-.9h-.9l-.1.9H227v.6h1.9l-.3.6h-1.3v4.5h-.7v.6h5.4v-.6Zm0 0" style="fill:none;stroke-width:3;stroke-linecap:butt;stroke-linejoin:round;stroke:#fff;stroke-opacity:.6;stroke-miterlimit:10" transform=" rotate(  340 217.557 102.104) "/> <g style="fill:#222;fill-opacity:1" transform=" rotate(  340 217.557 102.104) ">  <use xlink:href="#a" x="202.6" y="105.1"/>  <use xlink:href="#b" x="212.6" y="105.1"/>  <use xlink:href="#c" x="222.6" y="105.1"/> </g> <path d="M112.6 223.3v.8h-2.3v-.8Zm3.1.8h-2.4v-.8h2.4Zm-2.4 1.3v-.8h2.4v.8Zm-3-.8h2.3v.8h-2.3Zm-.7 1.7h.7v-.3h5.4v.3h.8v-3.5h-7Zm6.2-7.1h-5.7v.5h5.7Zm-4.8 1.6h4.1v.9h-4.2Zm4.9 1.4v-2h-5.8v2.1Zm-2.7-4.3v-.7h-.6v.7h-3.8v1.8h.7v-1.2h7v1.2h.6V218Zm7.5 2.9h1.1v-.8H119v.8h1v1.2h-1.4v.8h1.4v2c0 .4-.3.8-.5 1l.4.3c.1-.1.4-.1 2-1.3v-.6l-1.3.8v-2.2h1.4v-.7h-1.3Zm-1.1-3.6c-.3 1-.7 1.8-1.3 2.4l.4.7.9-1.2h2.4v-.8h-2.1c.2-.2.3-.6.4-.9Zm3.7 3h3v.8h-3Zm0-1.6h3v1h-3Zm4 3.8H125v-.8h2.1V218h-2.4l.3-.7-.8-.1-.2 1h-1.4v3.3h1.8v.9h-2v3.4h.7V223h1.3v3.3h.7v-3.2h1.4v1.8l-.1.2h-.8l.2.6 1.1-.1c.3-.1.3-.3.3-.7ZM137.5 219.3v-.7h-4.2v-1.4h-.7v1.4h-4v.7h3.9v1.4h-2.9v4.3h.6v-3.6h2.4v5h.7v-5h2.5v2.8l-.3.1h-1.4l.3.8c.8-.1 1.4-.1 1.6-.2.4-.1.5-.3.5-.7v-3.5h-3.2v-1.4Zm0 0" style="fill:none;stroke-width:3;stroke-linecap:butt;stroke-linejoin:round;stroke:#fff;stroke-opacity:.6;stroke-miterlimit:10" transform=" rotate(  340 122.976 222.567) "/> <g style="fill:#222;fill-opacity:1" transform=" rotate(  340 122.976 222.567) ">  <use xlink:href="#d" x="108" y="225.6"/>  <use xlink:href="#e" x="118" y="225.6"/>  <use xlink:href="#f" x="128" y="225.6"/> </g></svg>
